X:1
T:A Message from Our Father
T:A Message from Our Father
T:H. Lo Bianco
T:Anonymous, 1916
T:Public Domain Courtesy of the Cyber Hymnal™
T:Public Domain Courtesy of the Cyber Hymnal™
T:Public Domain Courtesy of the Cyber Hymnal™
C:H. Lo Bianco
Z:Public Domain
Z:Courtesy of the Cyber Hymnal™
%%score 1 ( 2 3 ) ( 4 5 )
L:1/8
Q:1/4=160
M:3/4
K:Ab
V:1 treble 
V:2 treble 
V:3 treble 
V:4 bass 
V:5 bass 
V:1
 A2 | A4 c2 | (B2 c2) d2 | (e4 c2) | A2 z2 G2 | (F2 G2) A2 | B4 c2 | B4 z2 | z4 B2 | B4 B2 | %10
w: 1.~A|mes- sage|from * our|Fa- *|ther, From|yon- * der|home of|light,|An-|gel- ic|
w: 2.~We|seek the|low- * ly|sta- *|ble, Led|by * the|an- gels|fair,|For|Christ, the|
w: 3.~With|shep- herds|poor * and|low- *|ly, Our|in- * fant|God we|greet;|We|of- fer|
w: 4.~Hail,|sweet and|pre- * cious|Sav- *|ior, Now|born * to|set us|free!|Hail,|love- ly|
w: 5.~With|Christ- mas|ben- * e-|dic- *|tion Fill|ev- * ery|soul, O|Lord!|De-|sire of|
 B4 e2 | (=d4 c2) | B2 z2 c2 | B4 A2 | G4 F2 | E4 z2 | z6 | A2 A2 A2 | A4 A2 | !>!d6 | c2 z2 c2 | %21
w: hosts are|bring- *|ing On|this most|glor- ious|night;||Beth- le- hem’s|star is|glow-|ing Most|
w: Son of|Ma- *|ry, Is|hum- bly|cra- dled|there;||With cher- ubs|watch- ing|o’er|Him, And|
w: soul and|bo- *|dy In|hom- age|at His|feet;||He lie- th|in the|man-|ger Who|
w: Rose of|Sha- *|ron, All|glo- ry|be to|Thee!||Hail, great- er|Son of|Da-|vid, Our|
w: all the|na- *|tions, Our|blest, in-|car- nate|God!||A mes- sage|from our|Fa-|ther Sweet|
 c4 B2 | B4 F2 | B4 z2 | z4!<(! E2 | e4!<)! e2 | e4 e2 | (e2 d2 c2) | (B2 c2) d2 | c4!>(! A2 | %30
w: ra- diant-|ly on|high,|While|songs of|ex- ul-|ta- * *|tion * Re-|e- cho|
w: ser- aphs|throng- ing|round;|O|en- ter|in with|holy * *|joy! * That|place is|
w: rules the|worlds on|high;|O|might- y|God, we|bless * *|Thee, * We|own Thy|
w: Fa- ther’s|gift of|love!|We|bless, a-|dore and|praise * *|Thee, * O|Day- star|
w: an- gel|voic- es|bring;|Light|up with|joy the|tap- * *|ers, * Let|ev- ery|
 (G2 F2)!>)! E2 | A2 z4 | z6 ||[K:Db]"^Refrain"!p! (A2 G2) F2 | A4 d2 | c4 B2 | A2 z2 A2 | %37
w: through * the|sky.||||||
w: hal- * lowed|ground.||||||
w: ma- * jes-|ty!||Peace * on|earth, good|will to|men, And|
w: from * a-|bove!||||||
w: church * bell|ring!||||||
!<(! d4 f2!<)! | (B2 c2) d2 | (e4 f2) | e2!f! z2 A2 | !>!d2 z2 d2 | !>!d4 d2 | (d2 c2) B2 | %44
w: |||||||
w: |||||||
w: to the|Sav- * ior|glo- *|ry; For|He is|born in|Beth- * le-|
w: |||||||
w: |||||||
 c2 z2!>(! A2 | B4 G2 | A4 F2 | (E2 G2 F2)!>)! | E2 z4 |!<(! F2 G2 A2 | (B2 c2) d2!<)! | !>!e4 d2 | %52
w: ||||||||
w: ||||||||
w: hem, Bright|an- gels|tell the|sto- * *|ry;|Let us with|joy- * ful|hearts re-|
w: ||||||||
w: ||||||||
 !fermata!c2 z2!pp! A2 | d4 A2 | B4 A2 | !fermata!c6 | !fermata!d6 |] %57
w: |||||
w: |||||
w: ply, Sweet|Je- su,|we a-|dore|Thee!|
w: |||||
w: |||||
V:2
 A2 | A4 c2 | (B2 c2) d2 | (e4 c2) | [EA]2 z2 [EG]2 | (F2 G2) [DA]2 | [DB]4 [Cc]2 | [DB]4 z2 | %8
 z4 [B,B]2 | [FAB]4 [FAB]2 | [EB]4 [Ee]2 | ([F=d]4 [=Dc]2) | [EB]2 z2 [Ec]2 | [EB]4 [EA]2 | %14
 [EG]4 [=DF]2 | (E2 E2 =D2 | E2 D2 B,2) | .[CA]4 .[DA]2 | A4 .[CA]2 | [Dd]6 | [Ec]2 z2 [Ec]2 | %21
 [Fc]4 [DB]2 | [FB]4 [=DF]2 | [DB]4 z2 | z4 E2 | [Ee]4 [Ee]2 | [Ee]4 [Ae]2 | (e2 d2 c2) | %28
 (B2 c2) [Fd]2 | [Ec]4 [=DA]2 | (G2 F2) [DE]2 | ([CA]2 .G2 .A2 | ._G2 .E2 .A2) || %33
[K:Db] ([FA]2 [EG]2) [DF]2 | [DA]4 [Fd]2 | [Gc]4 [GB]2 | [FA]2 z2 [FA]2 | [Fd]4 [Ff]2 | %38
 B2 c2 [Gd]2 | [Ge]6 | [Ge]2 z2 [GA]2 | [Fd]2 z2 [Gd]2 | [Fd]4 [Fd]2 | (d2 c2) [DB]2 | %44
 [Cc]2 z2 [DA]2 | B4 G2 | A4 F2 | E2 G2 F2 | [CE]2 z4 | F2 G2 A2 | [DB]2 [Gc]2 [Fd]2 | %51
 [Ge]4 [Fd]2 | !fermata![Ec]2 z2 [GA]2 | [Fd]4 [FA]2 | [GB]4 [GA]2 | !fermata!c6 | %56
 !fermata![Fd]6 |] %57
V:3
 x2 | E6 | E6 | E6- | x6 | D4 x2 | x6 | x6 | x6 | x6 | x6 | x6 | x6 | x6 | x6 | x6 | x6 | x6 | %18
 (.C2 D2) x2 | x6 | x6 | x6 | x6 | x6 | x6 | x6 | x6 | F6 | F4 x2 | x6 | D4 x2 | x6 | x6 || %33
[K:Db] x6 | x6 | x6 | x6 | x6 | G4 x2 | x6 | x6 | x6 | x6 | D4 x2 | x6 | C6 | D6 | C6- | x6 | D6- | %50
 x6 | x6 | x6 | x6 | x6 | (G2 A2 G2) | x6 |] %57
V:4
 z2 | [F,A,]6 | [E,B,D]6 | [A,C]6- | [A,C]2 z4 | [D,D]4 [F,A,]2 | [E,G,]4 [A,,A,]2 | [E,G,]4 z2 | %8
 z4 [B,,F,]2 | [=D,F,]4 [D,F,]2 | [E,G,]4 [E,G,]2 | (B,2 F,2 A,2) | [E,G,]2 z2 [A,,A,]2 | %13
 [G,,B,]4 [A,,C]2 | [B,,B,]4 [B,,A,]2 | ([E,G,]2 E,2 =D,2 | E,2 D,2 B,,2) | .[A,,E,]4 .[A,,F,]2 | %18
 (.E,2 F,2) .[A,,E,]2 | [A,,-F,]6 | [A,,E,]2 z2 A,2 | [D,D]4 [D,D]2 | [=D,B,]4 [D,A,]2 | %23
 [E,G,]4 z2 | z4 [D,G,]2 | [C,A,]4 [C,A,]2 | [D,G,]4 [C,A,]2 | B,6- | B,4 [B,,B,]2 | %29
 [E,A,]4 [F,A,]2 | [E,B,]4 [E,B,]2 | [A,,A,]2 z4 | z6 ||[K:Db]!p! [D,A,]4 [D,A,]2 | %34
 [F,A,]4 [D,A,]2 | [A,,A,]4 [A,,A,]2 | [D,A,]2 z2 [D,A,]2 |!<(! [B,,B,]4 [B,,B,]2 | %38
 [E,B,]4!<)! [B,,B,]2 | [A,,A,]6- | [A,,A,]2!f! z2 [A,C]2 | !>![D,D]2 z2 [G,B,]2 | %42
 !>![D,A,]4 [D,A,]2 | [E,=G,]4 [E,G,]2 | [A,,A,]2 z2 [A,,F,]2 | [A,,G,]4 [A,,E,]2 | F,4 D,2 | %47
 G,2 E,2 F,2 | [A,,G,]2 z4 | [D,F,]2 B,2 A,2 | G,2 A,4- | [C,A,]4 [D,A,]2 | %52
 [A,,A,]2 z2!pp! [A,C]2 | [D,D]4 [D,D]2 | [G,D]4 [A,C]2 | [A,,A,-]6 | !fermata![D,A,]6 |] %57
V:5
 x2 | x6 | x6 | x6 | x6 | x6 | x6 | x6 | x6 | x6 | x6 | B,,6 | x6 | x6 | x6 | x6 | x6 | x6 | A,,6 | %19
 x6 | x4 A,2 | x6 | x6 | x6 | x6 | x6 | x6 | B,,4 C,2 | (D,2 C,2) x2 | x6 | x6 | x6 | x6 || %33
[K:Db] x6 | x6 | x6 | x6 | x6 | x6 | x6 | x6 | x6 | x6 | x6 | x6 | x6 | A,,6 | A,,6- | x6 | x6 | %50
 x2 E,2 D,2 | x6 | x6 | x6 | x6 | x6 | x6 |] %57

